X:1
T:New Road to Brechin Castle, The
T:New Road to Brechin Castle, The
T:Niel Gow Jr.
C:Niel Gow Jr.
L:1/8
M:2/2
K:C
V:1 treble 
V:1
 e | a2 b^g aefd | eBcA ^GBEG | Acea fdBd | ce^GB AA,A,e | a2 b^g aefd | eBcA ^GBEG | Acea fdBd | %8
 ce^GB AA,A, || B | c2 (e/d/)c gedc | BGBd gdB^G | AcBd cedf | eA^Ge cAAB | c2 (e/d/c) gedc | %15
 BGBd gdB^G | AcBd cedf | eA^Ge cAA || %18

